X: 22893
T: Lark's March, The
R: jig
M: 6/8
K: Gmajor
gdB BAB|GBA GBd|gdB BAB|GBd ezd|
gdB BAB|GBA GBd|gfe fdB|ABd ezd:|
g3 bag|fdf afd|g3 bag|afd e2d|
g3 bag|fdf afd|gfe fdB|ABd e2d:|

